X:1
T:Title
%%score { ( 1 4 5 ) | ( 2 3 ) }
L:1/8
M:4/4
K:Bb
V:1 treble nm="Synth Voice, Staff"
V:4 treble 
V:5 treble 
V:2 bass 
V:3 bass 
V:1
 B,4 D2 F2 | [FB]2 [Fd]2 [Fc]4 | [Fc]4 [FA]4 | z4 F4 | [B,D]4 B,4 | D2 F2 [FB]2 [Fd]2 | %6
w: By~Ebeling,~Johann~Georg * *||||||
 [Fc]4 [Fc]4 | [FA]4 [FB]2 [DF]2 | C2 z E [B,D]4- | [B,D]2 [DB]4 [FB]2- | %10
w: ||||
 [FB][DF] [EG]2 [EG]2 [EF]2- | [EF]2 [DF]2 [Fd]2 [Fc]2 | [DB]2 A2- AA [B,G]2- | %13
w: |||
 [B,G]2 [CF]4 [DB]2 | [Fc]2 [Fd]2 [FB]2 [Fe]2- | [Fe]2 [Fd]2 [Fc]2 [DB]2 | [EB]2 B2- BA [DB]2- | %17
w: ||||
 [DB]6 z2 |] %18
w: |
V:2
 B,,4 D,2 F,2 | [D,B,]2 [B,,B,]2 [F,B,]4 | z4 C4 | [D,B,]2 [B,,B,]2 [F,B,]2 [F,,A,]2 | %4
 [B,,F,]4 B,,4 | D,2 F,2 [D,B,]2 [B,,B,]2 | [F,B,]4 [F,A,]4 | C4 z4 | [F,B,]2 [F,,A,]2 [B,,F,]4- | %9
 [B,,F,]2 [B,,F,]4 [D,B,]2- | [D,B,][B,,B,] [E,B,]2 [G,B,]2 B,2- | B,2 B,2 [B,,B,]2 [F,A,]2 | %12
 G,2 [C,G,]2 [D,^F,]2 G,2- | G,2 [A,C]4 [G,B,]2 | z4 z2 B,2 | z8 | [E,G,]2 F,2 [F,,F,]2 [B,,F,]2- | %17
 [B,,F,]6 z2 |] %18
V:3
 x8 | x8 | [F,A,]4 F,2 E,2 | x8 | x8 | x8 | x8 | F,2 E,2 [D,B,]2 [B,,B,]2 | x8 | x8 | x8 | x8 | %12
 x8 | x8 | [F,A,]2 [B,,B,]2 [D,B,]2 C,2- | [C,A,]2 [B,,B,]2 [F,A,]2 [G,B,]2 | x8 | x8 |] %18
V:4
 x8 | x8 | x8 | [FB]2 [DF]2 C2 z E | x8 | x8 | x8 | x8 | F4 z4 | x8 | x8 | x8 | z2 E2 D2 z2 | x8 | %14
 x8 | x8 | z2 C2 C2 z2 | x8 |] %18
V:5
 x8 | x8 | x8 | z4 z2 C2 | x8 | x8 | x8 | x8 | z2 C2 z4 | x8 | x8 | x8 | x8 | x8 | x8 | x8 | x8 | %17
 x8 |] %18

